Papirus/22x22/panel/skype-status-disturb.svg

<?xml version="1.0" encoding="UTF-8" standalone="no"?>
<svg xmlns:osb="http://www.openswatchbook.org/uri/2009/osb" xmlns:dc="http://purl.org/dc/elements/1.1/" xmlns:cc="http://creativecommons.org/ns#" xmlns:rdf="http://www.w3.org/1999/02/22-rdf-syntax-ns#" xmlns:svg="http://www.w3.org/2000/svg" xmlns="http://www.w3.org/2000/svg" version="1.0" width="22" height="22" id="svg2817">
    <defs id="defs429">
        <linearGradient id="linearGradient5606" osb:paint="solid">
            <stop id="stop5608" offset="0" style="stop-color:#000000;stop-opacity:1;"/>
        </linearGradient>
    </defs>
    <metadata id="metadata57">
        <rdf:RDF>
            <cc:Work rdf:about="">
                <dc:format>
                    image/svg+xml
                </dc:format>
                <dc:type rdf:resource="http://purl.org/dc/dcmitype/StillImage"/>
                <dc:title/>
            </cc:Work>
        </rdf:RDF>
    </metadata>
    <path id="path4708" d="M 7 3 A 4 4 0 0 0 3 7 A 4 4 0 0 0 4.1152344 9.7695312 A 7 7 0 0 0 4 11 A 7 7 0 0 0 11 18 A 7 7 0 0 0 12.238281 17.886719 A 4 4 0 0 0 15 19 A 4 4 0 0 0 19 15 A 4 4 0 0 0 17.884766 12.230469 A 7 7 0 0 0 18 11 A 7 7 0 0 0 11 4 A 7 7 0 0 0 9.7617188 4.1132812 A 4 4 0 0 0 7 3 z M 7 10.089844 L 15 10.089844 L 15 12.089844 L 7 12.089844 L 7 10.089844 z " style="opacity:1;fill:#ffffff;fill-opacity:1;stroke:none;stroke-width:2;stroke-linecap:round;stroke-linejoin:round;stroke-miterlimit:4;stroke-dasharray:none;stroke-opacity:1"/>
    <g transform="translate(-55.827586,-11.546423)" id="g4768">
        <g id="layer1" style="display:inline" transform="translate(-225,-813.27264)">
            <rect height="22" id="rect5207" style="color:#bebebe;display:inline;overflow:visible;visibility:visible;fill:none;stroke:none;stroke-width:1;marker:none;enable-background:new" width="22" x="225" y="813.27264"/>
        </g>
    </g>
</svg>

<?xml version="1.0" encoding="UTF-8" standalone="no"?>
<svg id="svg2817" xmlns:rdf="http://www.w3.org/1999/02/22-rdf-syntax-ns#" xmlns="http://www.w3.org/2000/svg" xmlns:osb="http://www.openswatchbook.org/uri/2009/osb" height="22" width="22" version="1.0" xmlns:cc="http://creativecommons.org/ns#" xmlns:dc="http://purl.org/dc/elements/1.1/">
 <metadata id="metadata57">
  <rdf:RDF>
   <cc:Work rdf:about="">
    <dc:format>image/svg+xml</dc:format>
    <dc:type rdf:resource="http://purl.org/dc/dcmitype/StillImage"/>
    <dc:title/>
   </cc:Work>
  </rdf:RDF>
 </metadata>
 <path id="path4708" d="m7 3a4 4 0 0 0 -4 4 4 4 0 0 0 1.1152 2.7695 7 7 0 0 0 -0.1152 1.2305 7 7 0 0 0 7 7 7 7 0 0 0 1.238 -0.113 4 4 0 0 0 2.762 1.113 4 4 0 0 0 4 -4 4 4 0 0 0 -1.115 -2.77 7 7 0 0 0 0.115 -1.23 7 7 0 0 0 -7 -7 7 7 0 0 0 -1.2383 0.1133 4 4 0 0 0 -2.7617 -1.1133zm0 7.09h8v2h-8v-2z" fill="#fff"/>
 <g id="g4768" transform="translate(-55.828 -11.546)">
  <g id="layer1" transform="translate(-225 -813.27)">
   <rect id="rect5207" style="color:#bebebe;enable-background:new" height="22" width="22" y="813.27" x="225" fill="none"/>
  </g>
 </g>
</svg>
